build/security/LockOutline.svg

<svg xmlns="http://www.w3.org/2000/svg" fill="none" viewBox="0 0 24 24" focusable="false"><path d="M0 0H24V24H0z"/><path fill="#74767B" fill-rule="evenodd" d="M8.01561 8.99996L8.0156 7.08423C8.0156 4.8904 9.79406 3.11194 11.9879 3.11194C14.1817 3.11194 15.9602 4.89039 15.9602 7.08423L15.9602 8.99996L16 8.99996C17.6569 8.99996 19 10.3431 19 12L19 17C19 18.6568 17.6569 20 16 20L8 20C6.34315 20 5 18.6568 5 17L5 12C5 10.3431 6.34315 8.99996 8 8.99996L8.01561 8.99996ZM9.3456 7.08423C9.3456 5.62494 10.5286 4.44194 11.9879 4.44194C13.4472 4.44194 14.6302 5.62493 14.6302 7.08423L14.6302 8.99996L9.34561 8.99996L9.3456 7.08423ZM8 10.3L16 10.3C16.9389 10.3 17.7 11.0611 17.7 12L17.7 17C17.7 17.9388 16.9389 18.7 16 18.7L8 18.7C7.06112 18.7 6.3 17.9388 6.3 17L6.3 12C6.3 11.0611 7.06112 10.3 8 10.3ZM12 12.9917C12.359 12.9917 12.65 13.2827 12.65 13.6417L12.65 15.3582C12.65 15.7172 12.359 16.0082 12 16.0082C11.641 16.0082 11.35 15.7172 11.35 15.3582L11.35 13.6417C11.35 13.2827 11.641 12.9917 12 12.9917Z"/></svg>

<svg xmlns="http://www.w3.org/2000/svg" fill="none" viewBox="0 0 24 24" focusable="false"><path fill="#74767B" fill-rule="evenodd" d="M8.01 8.99V7.08a3.975 3.975 0 0 1 7.95 0v1.91H16c1.65 0 3 1.35 3 3v5c0 1.66-1.35 3-3 3H8c-1.66 0-3-1.34-3-3v-5c0-1.65 1.34-3 3-3zm1.33-1.91a2.646 2.646 0 0 1 5.29 0v1.91H9.34zM8 10.29h8c.93 0 1.7.77 1.7 1.7v5c0 .94-.77 1.71-1.7 1.71H8c-.94 0-1.7-.77-1.7-1.71v-5c0-.93.76-1.7 1.7-1.7m4 2.7c.35 0 .65.29.65.65v1.71c0 .36-.3.65-.65.65-.36 0-.65-.29-.65-.65v-1.71c0-.36.29-.65.65-.65"/></svg>
